icons/bag-circle-check.svg

<svg xmlns="http://www.w3.org/2000/svg" viewBox="0 0 24 24" fill="currentColor">
  <path d="M15.5738 4.07419c.2965-.28925.3024-.76409.0131-1.06058-.2892-.29649-.7641-.30235-1.0605-.01309l-3.7197 3.62894-1.15661-1.54211c-.24853-.33137-.71863-.39852-1.05-.15-.33137.24853-.39853.71863-.15 1.05l1.53198 2.04264.03773.03769c.2224.22248.5064.29467.7303.29467.2224 0 .5041-.07125.726-.29033l4.0977-3.99783ZM6.18035 5.66778c.2929-.29289.2929-.76777 0-1.06066-.29289-.29289-.76776-.29289-1.06066 0-3.79289 3.79289-3.79289 9.96768 0 13.76058 3.7929 3.7929 9.96781 3.7929 13.76071 0 3.7929-3.7929 3.7929-9.96769 0-13.76058-.2929-.29289-.7678-.29289-1.0607 0-.2929.29289-.2929.76777 0 1.06066 3.0749 3.07488 3.2017 8.00472.3803 11.23262v-3.463c0-2.0142-1.6357-3.65005-3.65-3.65005H9.45004c-2.01422 0-3.64999 1.63585-3.64999 3.65005v3.463c-2.82135-3.2278-2.69458-8.15773.3803-11.23262Zm1.1197 12.57672c2.81265 1.9572 6.58735 1.9572 9.39995-.0001v-4.807c0-1.1858-.9642-2.15-2.15-2.15H9.45004c-1.18577 0-2.14999.9642-2.14999 2.15v4.8071Zm2.14311-4.76c.30534-.2799.77974-.2593 1.05964.0461.7905.8623 2.1963.8969 3.1168-.0236.2929-.2929.7678-.2929 1.0607 0 .2929.2929.2929.7678 0 1.0607-1.4795 1.4795-3.8737 1.5141-5.28321-.0235-.27989-.3054-.25927-.7798.04607-1.0597Z"/>
</svg>

<svg width="24" height="24" viewBox="0 0 24 24" fill="none" xmlns="http://www.w3.org/2000/svg">
<path fill-rule="evenodd" clip-rule="evenodd" d="M15.5738 4.07419C15.8703 3.78494 15.8762 3.3101 15.5869 3.01361C15.2977 2.71712 14.8228 2.71126 14.5264 3.00052L10.8067 6.62946L9.65009 5.08735C9.40156 4.75598 8.93146 4.68883 8.60009 4.93735C8.26872 5.18588 8.20156 5.65598 8.45009 5.98735L9.98207 8.02999L10.0198 8.06768C10.2422 8.29016 10.5262 8.36235 10.7501 8.36235C10.9725 8.36235 11.2542 8.2911 11.4761 8.07202L15.5738 4.07419ZM6.18035 5.66778C6.47325 5.37489 6.47325 4.90001 6.18035 4.60712C5.88746 4.31423 5.41259 4.31423 5.11969 4.60712C1.3268 8.40001 1.3268 14.5748 5.11969 18.3677C8.91259 22.1606 15.0875 22.1606 18.8804 18.3677C22.6733 14.5748 22.6733 8.40001 18.8804 4.60712C18.5875 4.31423 18.1126 4.31423 17.8197 4.60712C17.5268 4.90001 17.5268 5.37489 17.8197 5.66778C20.8946 8.74266 21.0214 13.6725 18.2 16.9004V13.4374C18.2 11.4232 16.5643 9.78735 14.55 9.78735H9.45004C7.43582 9.78735 5.80005 11.4232 5.80005 13.4374V16.9004C2.9787 13.6726 3.10547 8.74267 6.18035 5.66778ZM7.30005 18.2445C10.1127 20.2017 13.8874 20.2017 16.7 18.2444V13.4374C16.7 12.2516 15.7358 11.2874 14.55 11.2874H9.45004C8.26427 11.2874 7.30005 12.2516 7.30005 13.4374V18.2445ZM9.44316 13.4845C9.7485 13.2046 10.2229 13.2252 10.5028 13.5306C11.2933 14.3929 12.6991 14.4275 13.6196 13.507C13.9125 13.2141 14.3874 13.2141 14.6803 13.507C14.9732 13.7999 14.9732 14.2748 14.6803 14.5677C13.2008 16.0472 10.8066 16.0818 9.39709 14.5442C9.1172 14.2388 9.13782 13.7644 9.44316 13.4845Z" fill="black"/>
</svg>
